_includes/icons/ios-heart-health.svg

<svg fill="#666" height="50" viewBox="0 0 50 50" width="50" xmlns="http://www.w3.org/2000/svg"><path d="m14.550781 6c-6.914062 0-12.550781 5.554688-12.550781 12.402344 0 3.523437 1.449219 6.632812 3.835938 8.867187l19.164062 19.144532 19.515625-19.492188c2.175781-2.148437 3.484375-5.21875 3.484375-8.519531 0-2.054688-.539062-3.996094-1.371094-5.6875l-.601562-1.234375-21.054688 20.320312-12.386718-12.386718c-.789063-.789063-.789063-2.039063 0-2.828125.789062-.789063 2.039062-.789063 2.828125 0l9.613281 9.613281 18.15625-17.535156-.996094-.695313c-.046875-.035156-.125-.09375-.246094-.171875l-.03125-.023437-.035156-.019532c-1.875-1.039062-4.027344-1.753906-6.425781-1.753906-4.425781 0-8.199219 2.355469-10.445313 5.734375-2.246093-3.445312-6.035156-5.734375-10.453125-5.734375zm0 2c4.242188 0 7.839844 2.378906 9.546875 5.945313l.890625 1.859375.90625-1.851563c1.707032-3.464844 5.328125-5.953125 9.554688-5.953125 1.609375 0 3.058594.449219 4.429687 1.070313l-14.832031 14.320312-8.21875-8.21875c-1.554687-1.554687-4.101562-1.554687-5.65625 0-1.554687 1.554688-1.554687 4.101563 0 5.65625l13.78125 13.78125.703125-.683594 19.671875-18.992187c.386719 1.105469.671875 2.257812.671875 3.46875 0 2.773437-1.109375 5.34375-2.890625 7.101562l-.003906.003907-18.105469 18.078125-17.785156-17.761719-.011719-.011719c-2.011719-1.886719-3.203125-4.425781-3.203125-7.410156 0-5.75 4.703125-10.402344 10.550781-10.402344z"/></svg>

<svg xmlns="http://www.w3.org/2000/svg" viewBox="0 0 50 50" width="50" height="50" fill="#666"><path d="M 14.550781 6 C 7.636719 6 2 11.554688 2 18.402344 C 2 21.925781 3.449219 25.035156 5.835938 27.269531 L 25 46.414063 L 44.515625 26.921875 C 46.691406 24.773438 48 21.703125 48 18.402344 C 48 16.347656 47.460938 14.40625 46.628906 12.714844 L 46.027344 11.480469 L 24.972656 31.800781 L 12.585938 19.414063 C 11.796875 18.625 11.796875 17.375 12.585938 16.585938 C 13.375 15.796875 14.625 15.796875 15.414063 16.585938 L 25.027344 26.199219 L 43.183594 8.664063 L 42.1875 7.96875 C 42.140625 7.933594 42.0625 7.875 41.941406 7.796875 L 41.910156 7.773438 L 41.875 7.753906 C 40 6.714844 37.847656 6 35.449219 6 C 31.023438 6 27.25 8.355469 25.003906 11.734375 C 22.757813 8.289063 18.96875 6 14.550781 6 Z M 14.550781 8 C 18.792969 8 22.390625 10.378906 24.097656 13.945313 L 24.988281 15.804688 L 25.894531 13.953125 C 27.601563 10.488281 31.222656 8 35.449219 8 C 37.058594 8 38.507813 8.449219 39.878906 9.070313 L 25.046875 23.390625 L 16.828125 15.171875 C 15.273438 13.617188 12.726563 13.617188 11.171875 15.171875 C 9.617188 16.726563 9.617188 19.273438 11.171875 20.828125 L 24.953125 34.609375 L 25.65625 33.925781 L 45.328125 14.933594 C 45.714844 16.039063 46 17.191406 46 18.402344 C 46 21.175781 44.890625 23.746094 43.109375 25.503906 L 43.105469 25.507813 L 25 43.585938 L 7.214844 25.824219 L 7.203125 25.8125 C 5.191406 23.925781 4 21.386719 4 18.402344 C 4 12.652344 8.703125 8 14.550781 8 Z"/></svg>
